!!!SOCIAL_FUNCTION:	songs for success in hunting
!!!PDT:	1956
!!!OTL: No_213_the_Unsuccessful_Hunter.krn
!!!LANG: Non-Tone
!!!LING_GROUP: Muskogean
!!!REG: Florida
**kern
*staff1
=1-
*clefF4
*k[b-]
*M3/4
4F\
4c\
8c\L
8A\J
=2
(8c\L
8A\J)
4.A\
8F\
=3||
*M2/4
8F\L
8A\J
8A\L
8F\J
=4
(8F/L
8C/J)
4C/
=5||
*M3/4
8D\L
8D\J
8D\L
8D\J
(8D/L
8C/J)
=6||
*M2/4
2F\
=7
8A\L
8A\J
8A\L
8F\J
=8
(8F/L
8C/J)
4C/
=9
8c\L
8c\J
8c\L
8A\J
=10||
*M3/4
(8c\L
8A\J)
(4.A\
8F\)
=11||
*M2/4
8F\L
8A\J
8A\L
8F\J
=12
(8F/L
8C/J)
4C/
=13||
*M3/4
8D\L
8D\J
8D\L
8D\J
(8D/L
8C/J)
=14||
*M2/4
2F\
=15
8A\L
8A\J
8A\L
8F\J
=16||
*M3/4
(8F/L
8C/J)
4C/
4r
=17!|:
*M2/4
16F\LK
8.F\J
16F\LK
8.F\J
=18
4F\
4A\
=19||
*M3/4
4F\
16F\LK
8.F\J
4A\
=20||
*M2/4
8F\L
8F\J
8F\L
8F\J
=21
4F\
4A\
=22||
*M3/4
8.F\L
16F\Jk
8F\
8r
8F\L
8F\J
=23||
*M4/4
2A\
8F\L
8F\J
4C/
=24||
*M3/4
8D\L
8D\J
8D\L
8D\J
(8D/L
8C/J)
=25||
*M2/4
2F\
=26
8A\L
8A\J
8A\L
8F\J
=27
(8F/L
8C/J)
8C/
8r
=28
8c\L
8c\J
8c\L
8A\J
=29||
*M3/4
(8c\L
8A\J)
4.A\
8F\
=30||
*M2/4
8F\L
8A\J
8A\L
8F\J
=31
(8F/L
8C/J)
4C/
=32||
*M3/4
8D\L
8D\J
8D\L
8D\J
(8D/L
8C/J)
=33||
*M2/4
2F\
=34
8A\L
8A\J
8A\L
8F\J
=35||
*M3/4
(8F/L
8C/J)
2C/
=36:|!
=
*M3/4
(8F/L
8C/J)
4C/
8A\L
8F\J
=37||
*M2/4
4.A\
8C/
=38
16C/LL
16C/J
8C/J
8D/L
8C/J
==
*-
